icon-themes/breeze_svg/cmd/32/group.svg

<svg viewBox="0 0 32 32" xmlns="http://www.w3.org/2000/svg"><path d="m4 4v24h24v-24zm1 1h22v22h-22zm2 3v1 3 1 3 1 3 1 4h1 17v-1-15-1zm1 1h5v3h-5zm6 0h4v3h-4zm5 0h5v3h-5zm-11 4h5v3h-5zm6 0h4v3h-4zm5 0h5v3h-5zm-11 4h5v3h-5zm6 0h4v3h-4zm5 0h5v3h-5zm-11 4h5v3h-5zm6 0h4v3h-4zm5 0h5v3h-5z" fill="#4d4d4d"/></svg>

<svg xmlns="http://www.w3.org/2000/svg" viewBox="0 0 32 32">
 <path 
     style="fill:#4d4d4d" 
     d="M 4 4 L 4 28 L 28 28 L 28 4 L 4 4 z M 5 5 L 27 5 L 27 27 L 5 27 L 5 5 z M 7 8 L 7 9 L 7 12 L 7 13 L 7 16 L 7 17 L 7 20 L 7 21 L 7 25 L 8 25 L 25 25 L 25 24 L 25 9 L 25 8 L 7 8 z M 8 9 L 13 9 L 13 12 L 8 12 L 8 9 z M 14 9 L 18 9 L 18 12 L 14 12 L 14 9 z M 19 9 L 24 9 L 24 12 L 19 12 L 19 9 z M 8 13 L 13 13 L 13 16 L 8 16 L 8 13 z M 14 13 L 18 13 L 18 16 L 14 16 L 14 13 z M 19 13 L 24 13 L 24 16 L 19 16 L 19 13 z M 8 17 L 13 17 L 13 20 L 8 20 L 8 17 z M 14 17 L 18 17 L 18 20 L 14 20 L 14 17 z M 19 17 L 24 17 L 24 20 L 19 20 L 19 17 z M 8 21 L 13 21 L 13 24 L 8 24 L 8 21 z M 14 21 L 18 21 L 18 24 L 14 24 L 14 21 z M 19 21 L 24 21 L 24 24 L 19 24 L 19 21 z "
     />
</svg>
